X:36
T:Pierpoint
T:L. M.
S:John Moore's Book 3
Z:Transcribed by Edmund Spriggs 05/2021
%%VWML: Moore1-4495-p26-0
F:https://www.vwml.org/record/Moore3/4495/p26
N:Tune continues on jpeg page 27
N:The first part is missing a beat in bar 14.
N:The fourth part is missing a beat in bar 15.
N:The word "Pianoissimo" (sic), above bar 9 in the Air, appears to be written in pencil, not ink.
M:3/2
L:1/2
V:1 clef=treble
V:2 clef=treble
V:3 clef=treble
V:4 clef=bass
K:G
[V:1]d|d2d|(e/f/g)(f/g/)|(ed>)c|B2|]
[V:2]G|(GA)B|(c/A/d)(c/B/)|(AG)F|G2|]
[V:3]"Air"G|(dc)B|(AG)(A/B/)|(cB)A|G2|]
[V:4]G,|(B,A,)G,|(CB,)(A,/G,/)|(C,D,)D,|G,,2|]
[V:1]f|g2g|(gb)(g/f/)|efg|f2|]
[V:2]d|(ed)(e/f/)|gfe/d/|(ed)^c|d2|]
[V:3](A/B/)|(cB)(c/d/)|(ed)(e/f/)|(gf)e|d2|]
[V:4]D,|G,2(G,/F,/)|(E,/C,/D,/E,/)G,/A,/|(B,/G,/A,)A,,|D2|]
[V:1]z1|z3|z3|z3|z1z1|]
[V:2]B|(B/c/B/A/)(G/A/)|B2B|(B/c/B/A/)(G/A/)|B2|]
[V:3]"Pianoissimo"d|(d/e/d/c/)(B/c/)|d2d|(d/e/d/c/)(B/c/)|d2|]
[V:4]G,|G,2G,|{G,4}G,2{D,4B,,4G,,4}G,{B,,4D,4}|G,2G,|G,2|]
[V:1]b/a/|(ga/b/)c'|g(f/g/)|(ed)c|B2|]
[V:2]"For"(G/A/)|(B/G/d)(e/f/)|(g/B/e/d/)(c/B/)|AGF|G2|]
[V:3](e/f/)|(gf)e|d(c/B/)(A/G/)|(cB)A|G2|]
[V:4]"For"(G,/F,/)|(E,D,)C,|G,2A,/B,/|(C/A,/D)|G,2|]

